resources/svg/regular/equalizer.svg

<svg xmlns="http://www.w3.org/2000/svg" fill="currentColor" stroke="none" viewBox="0 0 24 24"><path d="M11 9h2v6h-2zm4-3h2v12h-2zM7 4h2v16H7zm12 7h2v2h-2zM3 10h2v4H3z"/></svg>

<svg xmlns="http://www.w3.org/2000/svg" fill="currentColor" stroke="none" viewBox="0 0 24 24"><path d="M11 9H13V15H11zM15 6H17V18H15zM7 4H9V20H7zM19 11H21V13H19zM3 10H5V14H3z"/></svg>
